packages/foundations/assets/icons/functional/images/maps/road_sign_16.svg

<svg width="16" height="16" viewBox="0 0 16 16" fill="none" xmlns="http://www.w3.org/2000/svg">
<g clip-path="url(#clip0_186_115)">
<path fill-rule="evenodd" clip-rule="evenodd" d="M10.7453 1.49841C11.2533 1.49841 11.8324 1.75238 12.1372 2.13329L13.788 4.41909C14.0674 4.74921 14.1943 5.18091 14.1943 5.56191C14.1943 5.96825 14.0674 6.34925 13.788 6.70472L12.1351 8.93964C11.7794 9.39687 11.3245 9.6254 10.7403 9.6254H8.30725V12.8762H10.72C11.1771 12.8762 11.558 13.2317 11.558 13.6889C11.558 14.1206 11.2533 14.5016 10.72 14.5016H4.24376C3.81205 14.5016 3.43106 14.146 3.43106 13.6889C3.43106 13.2317 3.78662 12.8762 4.24376 12.8762H6.68185V9.6254H3.63424C2.61836 9.6254 1.80566 8.8127 1.80566 7.82218V3.35234C1.80566 2.33647 2.61836 1.49841 3.63424 1.49841H10.7453ZM10.7403 3.12381H3.43106V8H10.7403L12.5689 5.56191L10.7403 3.12381Z" fill="#1A1C1F"/>
</g>
<defs>
<clipPath id="clip0_186_115">
<rect width="16" height="16" fill="white"/>
</clipPath>
</defs>
</svg>

<svg xmlns="http://www.w3.org/2000/svg" width="16" height="16" fill="none"><g clip-path="url(#a)"><path fill="#1A1C1F" fill-rule="evenodd" d="M10.745 1.498c.508 0 1.087.254 1.392.635l1.651 2.286c.28.33.406.762.406 1.143a1.8 1.8 0 0 1-.406 1.143L12.135 8.94c-.356.457-.81.685-1.395.685H8.307v3.251h2.413c.457 0 .838.356.838.813 0 .432-.305.813-.838.813H4.244a.82.82 0 0 1-.813-.813c0-.457.356-.813.813-.813h2.438v-3.25H3.634a1.816 1.816 0 0 1-1.828-1.804v-4.47c0-1.016.812-1.854 1.828-1.854zm-.005 1.626H3.431V8h7.31l1.828-2.438z" clip-rule="evenodd"/></g><defs><clipPath id="a"><path fill="#fff" d="M0 0h16v16H0z"/></clipPath></defs></svg>
